WebBeautyBook/ClientApp/src/assets/svg/list.svg

<svg viewBox="0 0 24 24" fill="#1C274C" xmlns="http://www.w3.org/2000/svg">
   <path opacity="0.5" d="M3 10C3 6.22876 3 4.34315 4.17157 3.17157C5.34315 2 7.22876 2 11 2H13C16.7712 2 18.6569 2 19.8284 3.17157C21 4.34315 21 6.22876 21 10V14C21 17.7712 21 19.6569 19.8284 20.8284C18.6569 22 16.7712 22 13 22H11C7.22876 22 5.34315 22 4.17157 20.8284C3 19.6569 3 17.7712 3 14V10Z" ></path>
   <path fill-rule="evenodd" clip-rule="evenodd" d="M7.25 12C7.25 11.5858 7.58579 11.25 8 11.25H16C16.4142 11.25 16.75 11.5858 16.75 12C16.75 12.4142 16.4142 12.75 16 12.75H8C7.58579 12.75 7.25 12.4142 7.25 12Z"></path>
   <path fill-rule="evenodd" clip-rule="evenodd" d="M7.25 8C7.25 7.58579 7.58579 7.25 8 7.25H16C16.4142 7.25 16.75 7.58579 16.75 8C16.75 8.41421 16.4142 8.75 16 8.75H8C7.58579 8.75 7.25 8.41421 7.25 8Z"></path>
   <path fill-rule="evenodd" clip-rule="evenodd" d="M7.25 16C7.25 15.5858 7.58579 15.25 8 15.25H13C13.4142 15.25 13.75 15.5858 13.75 16C13.75 16.4142 13.4142 16.75 13 16.75H8C7.58579 16.75 7.25 16.4142 7.25 16Z"></path>
</svg>

<svg xmlns="http://www.w3.org/2000/svg" viewBox="0 0 24 24" fill="#1C274C" xmlns:v="https://vecta.io/nano"><path opacity=".5" d="M3 10c0-3.771 0-5.657 1.172-6.828S7.229 2 11 2h2c3.771 0 5.657 0 6.828 1.172S21 6.229 21 10v4c0 3.771 0 5.657-1.172 6.828S16.771 22 13 22h-2c-3.771 0-5.657 0-6.828-1.172S3 17.771 3 14v-4z"/><path d="M7.25 12a.75.75 0 0 1 .75-.75h8a.75.75 0 1 1 0 1.5H8a.75.75 0 0 1-.75-.75zm0-4A.75.75 0 0 1 8 7.25h8a.75.75 0 1 1 0 1.5H8A.75.75 0 0 1 7.25 8zm0 8a.75.75 0 0 1 .75-.75h5a.75.75 0 1 1 0 1.5H8a.75.75 0 0 1-.75-.75z" fill-rule="evenodd"/></svg>
